src/assets/changelog.svg

<?xml version="1.0" encoding="UTF-8" standalone="no"?>
<!-- Uploaded to: SVG Repo, www.svgrepo.com, Generator: SVG Repo Mixer Tools -->
<svg
     xmlns="http://www.w3.org/2000/svg"
     version="1.1" viewBox="0 0 128 128">
    <path d="M 29.09375 11.21875 C 25.90995 11.21875 23.375 13.784951 23.375 16.96875 L 23.375 111.03125 C 23.375 114.21504 25.90995 116.78125 29.09375 116.78125 L 98.90625 116.78125 C 102.09005 116.78125 104.625 114.21504 104.625 111.03125 L 104.625 40.34375 L 83.59375 40.34375 C 79.28764 40.34375 75.53125 37.20265 75.53125 33.03125 L 75.53125 11.21875 L 29.09375 11.21875 z M 79.53125 11.21875 L 79.53125 33.03125 C 79.53125 34.74538 81.16322 36.34375 83.59375 36.34375 L 104.625 36.34375 L 79.53125 11.21875 z M 34.15625 51.71875 L 35.65625 51.71875 C 36.21025 51.71875 36.65625 52.16475 36.65625 52.71875 L 36.65625 55.40625 L 39.375 55.40625 C 39.929 55.40625 40.375 55.85225 40.375 56.40625 L 40.375 57.90625 C 40.375 58.46025 39.929 58.90625 39.375 58.90625 L 36.65625 58.90625 L 36.65625 61.625 C 36.65625 62.179 36.21025 62.625 35.65625 62.625 L 34.15625 62.625 C 33.60225 62.625 33.15625 62.179 33.15625 61.625 L 33.15625 58.90625 L 30.4375 58.90625 C 29.8835 58.90625 29.4375 58.46025 29.4375 57.90625 L 29.4375 56.40625 C 29.4375 55.85225 29.8835 55.40625 30.4375 55.40625 L 33.15625 55.40625 L 33.15625 52.71875 C 33.15625 52.16475 33.60225 51.71875 34.15625 51.71875 z M 48.15625 54.0625 L 92.0625 54.0625 C 93.04156 54.0625 93.84375 54.86468 93.84375 55.84375 L 93.84375 58.5 C 93.84375 59.47907 93.04156 60.25 92.0625 60.25 L 48.15625 60.25 C 47.17718 60.25 46.40625 59.47907 46.40625 58.5 L 46.40625 55.84375 C 46.40625 54.86468 47.17718 54.0625 48.15625 54.0625 z M 34.15625 65.625 L 35.65625 65.625 C 36.21025 65.625 36.65625 66.071 36.65625 66.625 L 36.65625 69.3125 L 39.375 69.3125 C 39.929 69.3125 40.375 69.7585 40.375 70.3125 L 40.375 71.8125 C 40.375 72.3665 39.929 72.8125 39.375 72.8125 L 36.65625 72.8125 L 36.65625 75.53125 C 36.65625 76.08525 36.21025 76.53125 35.65625 76.53125 L 34.15625 76.53125 C 33.60225 76.53125 33.15625 76.08525 33.15625 75.53125 L 33.15625 72.8125 L 30.4375 72.8125 C 29.8835 72.8125 29.4375 72.3665 29.4375 71.8125 L 29.4375 70.3125 C 29.4375 69.7585 29.8835 69.3125 30.4375 69.3125 L 33.15625 69.3125 L 33.15625 66.625 C 33.15625 66.071 33.60225 65.625 34.15625 65.625 z M 48.15625 68.3125 L 92.0625 68.3125 C 93.04156 68.3125 93.84375 69.11468 93.84375 70.09375 L 93.84375 72.75 C 93.84375 73.72907 93.04156 74.5 92.0625 74.5 L 48.15625 74.5 C 47.17718 74.5 46.40625 73.72907 46.40625 72.75 L 46.40625 70.09375 C 46.40625 69.11468 47.17718 68.3125 48.15625 68.3125 z M 48.15625 82.5625 L 92.0625 82.5625 C 93.04156 82.5625 93.84375 83.33343 93.84375 84.3125 L 93.84375 86.96875 C 93.84375 87.94782 93.04156 88.75 92.0625 88.75 L 48.15625 88.75 C 47.17718 88.75 46.40625 87.94782 46.40625 86.96875 L 46.40625 84.3125 C 46.40625 83.33343 47.17718 82.5625 48.15625 82.5625 z M 30.4375 83.75 L 39.375 83.75 C 39.929 83.75 40.375 84.196 40.375 84.75 L 40.375 86.25 C 40.375 86.804 39.929 87.25 39.375 87.25 L 30.4375 87.25 C 29.8835 87.25 29.4375 86.804 29.4375 86.25 L 29.4375 84.75 C 29.4375 84.196 29.8835 83.75 30.4375 83.75 z M 34.15625 94.46875 L 35.65625 94.46875 C 36.21025 94.46875 36.65625 94.91475 36.65625 95.46875 L 36.65625 98.15625 L 39.375 98.15625 C 39.929 98.15625 40.375 98.60225 40.375 99.15625 L 40.375 100.65625 C 40.375 101.21025 39.929 101.65625 39.375 101.65625 L 36.65625 101.65625 L 36.65625 104.375 C 36.65625 104.929 36.21025 105.375 35.65625 105.375 L 34.15625 105.375 C 33.60225 105.375 33.15625 104.929 33.15625 104.375 L 33.15625 101.65625 L 30.4375 101.65625 C 29.8835 101.65625 29.4375 101.21025 29.4375 100.65625 L 29.4375 99.15625 C 29.4375 98.60225 29.8835 98.15625 30.4375 98.15625 L 33.15625 98.15625 L 33.15625 95.46875 C 33.15625 94.91475 33.60225 94.46875 34.15625 94.46875 z M 48.15625 96.84375 L 92.0625 96.84375 C 93.04156 96.84375 93.84375 97.61468 93.84375 98.59375 L 93.84375 101.25 C 93.84375 102.22907 93.04156 103.03125 92.0625 103.03125 L 48.15625 103.03125 C 47.17718 103.03125 46.40625 102.22907 46.40625 101.25 L 46.40625 98.59375 C 46.40625 97.61468 47.17718 96.84375 48.15625 96.84375 z "/>
</svg>

<svg xmlns="http://www.w3.org/2000/svg" viewBox="0 0 128 128"><path d="M29.094 11.219c-3.184 0-5.719 2.566-5.719 5.75v94.062c0 3.184 2.535 5.75 5.719 5.75h69.812c3.184 0 5.719-2.566 5.719-5.75V40.344H83.594c-4.306 0-8.063-3.141-8.063-7.313V11.22H29.094zm50.437 0V33.03c0 1.714 1.632 3.313 4.063 3.313h21.031L79.531 11.219zm-45.375 40.5h1.5c.554 0 1 .446 1 1v2.687h2.719c.554 0 1 .446 1 1v1.5c0 .554-.446 1-1 1h-2.719v2.719c0 .554-.446 1-1 1h-1.5c-.554 0-1-.446-1-1v-2.719h-2.718c-.554 0-1-.446-1-1v-1.5c0-.554.446-1 1-1h2.718V52.72c0-.554.446-1 1-1zm14 2.343h43.907c.979 0 1.78.803 1.78 1.782V58.5c0 .98-.801 1.75-1.78 1.75H48.156c-.979 0-1.75-.77-1.75-1.75v-2.656c0-.98.771-1.782 1.75-1.782zm-14 11.563h1.5c.554 0 1 .446 1 1v2.688h2.719c.554 0 1 .445 1 1v1.5c0 .553-.446 1-1 1h-2.719v2.718c0 .554-.446 1-1 1h-1.5c-.554 0-1-.446-1-1v-2.719h-2.718c-.554 0-1-.445-1-1v-1.5c0-.553.446-1 1-1h2.718v-2.687c0-.554.446-1 1-1zm14 2.688h43.907c.979 0 1.78.802 1.78 1.78v2.657c0 .98-.801 1.75-1.78 1.75H48.156c-.979 0-1.75-.77-1.75-1.75v-2.656c0-.98.771-1.781 1.75-1.781zm0 14.25h43.907c.979 0 1.78.77 1.78 1.75v2.656c0 .979-.801 1.781-1.78 1.781H48.156c-.979 0-1.75-.802-1.75-1.781v-2.656c0-.98.771-1.75 1.75-1.75zM30.438 83.75h8.937c.554 0 1 .446 1 1v1.5c0 .554-.446 1-1 1h-8.938c-.553 0-1-.446-1-1v-1.5c0-.554.447-1 1-1zm3.718 10.719h1.5c.554 0 1 .446 1 1v2.687h2.719c.554 0 1 .446 1 1v1.5c0 .554-.446 1-1 1h-2.719v2.719c0 .554-.446 1-1 1h-1.5c-.554 0-1-.446-1-1v-2.719h-2.718c-.554 0-1-.446-1-1v-1.5c0-.554.446-1 1-1h2.718V95.47c0-.554.446-1 1-1zm14 2.375h43.907c.979 0 1.78.77 1.78 1.75v2.656c0 .98-.801 1.781-1.78 1.781H48.156c-.979 0-1.75-.802-1.75-1.781v-2.656c0-.98.771-1.75 1.75-1.75z"/></svg>
